svg/300/sharp/swipe.svg

<svg xmlns="http://www.w3.org/2000/svg" width="48" height="48" viewBox="0 -960 960 960"><path d="M859.999-686.922H686.922v-33.077h136.077q-73.461-61.922-159.988-99.615-86.526-37.692-182.922-37.692t-183.012 37.692q-86.615 37.693-160.076 99.615h136.077v33.077H100.001v-173.077h33.077v99.539q76.077-58.922 163.328-94.422T480-890.382q96.343 0 183.594 35.5 87.251 35.5 163.328 94.422v-99.539h33.077v173.077ZM428.231-100.001 194.77-333.078l32.461-44.691 142.77 37v-361.923h45.383v422.691L274.46-317.617l172.617 172.232h287.538v-301.922h45.384v347.306H428.231Zm63.385-277.307v-189.999h45.383v189.999h-45.383Zm121.384 0v-149.999h45.384v149.999H613Zm-35.769 110.769Z"/></svg>

<svg xmlns="http://www.w3.org/2000/svg" width="48" height="48" viewBox="0 -960 960 960"><path d="M860-686.92H686.92V-720H823q-73.46-61.92-159.99-99.61-86.52-37.7-182.92-37.7-96.4 0-183.01 37.7Q210.46-781.92 137-720h136.08v33.08H100V-860h33.08v99.54q76.07-58.92 163.33-94.42 87.25-35.5 183.59-35.5t183.59 35.5q87.26 35.5 163.33 94.42V-860H860v173.08ZM428.23-100 194.77-333.08l32.46-44.69 142.77 37v-361.92h45.38V-280l-140.92-37.62 172.62 172.23h287.53v-301.92H780V-100H428.23Zm63.39-277.31v-190H537v190h-45.38Zm121.38 0v-150h45.38v150H613Zm-35.77 110.77Z"/></svg>
